X:944034
T:The Sound of Silence 3Voice P4
H: 
B: https://musescore.com/georgewu/ptxsoundofsilence, https://musescore.com/abchords321/scores/5449091
C:Simon and Garfunkel (Pentatonix / disturbed)
O:Transcribed by Kevin Fraser
Z:Kevin Fraser
Q:1/4=90
K:AMix
%K:AMix sound=A_b
%K:{g}B{d}BMix score=_{g}B{e}A %concert Pitch
M:4/4
L:1/8
U: R = ///
U: r = //
I:MIDI=program 110
I:linebreak $
%%MIDI gracedivider 100
V:M gstem=up stem=down name="Melody" sname=Melody
V:1 gstem=up stem=down name="Chord" sname=Ch
V:2 gstem=up stem=down name="Bass" sname=Bass 
V:3 gstem=up stem=down name="Piper 3" sname=P3 
V:4 gstem=up stem=down name="Piper 4" sname=P4 
V:BB gstem=up stem=down name="Brass Bass" sname="ABCD-C" transpose=-1  octave=-1 clef=bass
V:BC gstem=up stem=down name="Brass Chord" sname="ABCD-D" transpose=-1
V:BD gstem=up stem=down name="Brass Chord 2" sname="ABCD-B" transpose=-1
V:P gstem=up stem=down name="Piano" octave=-1
%%staff { M [ 1 2 ] }
% Standard papaer is 8.5x11 which is 22cmx27.5
% %landscape off
%%landscape 
I:linebreak $
%%score {M 1 2}
%%barsperstaff 5
[V:1]                [| B8                                             | [K:d]{g}c3/2{g}c3/2{g}c3          {g}c{d}c                | c6                   B2                         | {g}f3/2{g}f3/2{g}f3-{g}fe                 | {g}f2{g}fd                {g}fA d2                   | $ 
[V:1]                g2{a}gf3-fe/f/                      | g2              f2 d2 A2                   |  g2                      {g}gf- f4-          |  [M:2/4]             f2 {g}d{e}d                | [M:4/4]                           G7 f                    | $
[V:1]                {g}G{d}G3            fe- ed-                                                                  | d3                        {g}A{d}A2-Af/e/| B3d                       {g}d{e}d- d{e}d/d/         | {g}c8                               | dB-             B6-                        |] $
[V:2]                [| G8                                             | [K:d]{g}A3/2{g}A3/2{g}A3          Ae                      | {g}e3/2{g}e3/2{g}e3  {g}e{G}e                   | {g}d3/2{g}d3/2{g}d3       {g}dc | B4                        d2 f2                      | $
[V:2]                G4                 {gde}d4          | d3A             d2 f2                      |  G4                      {gde}d4             | [M:2/4]             d2 {g}d{e}d-               | [M:4/4]{gde}d4                    G2 A2                   |  $
[V:2]                {g}B{d}B3            AG ff-                    | f2-f/e/d                  c3 B/A/         | {gfg}f4                   {g}d{e}d- d{e}d/d/         | e8                                  | df              ef df Bf-                  |] $
[V:M]                [| f2                  {g}B{d}B {g}d{e}d f/e/d    | [K:d]                             e8-                     | e2                   {g}A{d}A {g}c{d}c {g}e{G}e | d8-                                       | d2                        {g}d{e}d {g}f{e}f {g}A{d}A | $ 
[V:M]                B2                 {g}B{e}A- A4-    | A2              dc {g}B{e}A ed             |  B2-                     B/{g}A/{g}A- A4-    | [M:2/4]             A2 {g}d{e}d                | [M:4/4]                           {gBd}B6 c2              |  $
[V:M]                 | {g}d{e}d3            cB {g}A{d}A-               | A2                        A/G/f e3 d/c/   | B2-                       Bd dd- dd/d/               | A6-                Ac               | dB-             B6-                        |] $
W: Use Gracenotes or Strikes to separate repeated notes that don't have gracenote separators.

w:        Fools said I you do not |      know          | - Thou-sand Peo-ple May-be    |    more      |-   Hear my words that I might | teach you         | - take my arms that I might | reach you      | $
w:   |        -    but my  |        words      like | si-lent rain drops fell              |                   |  e-choed            in the | wells    of | si-lence    |] $
w:      -   and the  peo-ple bowed and| prayed | -  to the   ne-on    god | they made | -  and the sign flashed out its| war-ning   | - and the words that it was| for-ming  | and the sign said the |  $
w:   |  -         words of the pro-phet are |          written on the   sub-way walls | and            tenement        |halls         | and whispered  in the       | sound   | of  si-lence     |] $

